images/Pyramid.svg

<svg width="680px" height="655px" viewBox="0 0 680 655" version="1.1" xmlns="http://www.w3.org/2000/svg" xmlns:xlink="http://www.w3.org/1999/xlink">
    <!-- Generator: Sketch 42 (36781) - http://www.bohemiancoding.com/sketch -->
    <desc>Created with Sketch.</desc>
    <defs></defs>
    <g id="pyramid_logo_red_on_transparent_background" stroke="none" stroke-width="1" fill="none" fill-rule="evenodd">
        <g id="Group" transform="translate(111.737089, 0.000000)" fill-rule="nonzero" fill="#BE1E2D">
            <path d="M276.902066,208.201315 C283.601502,208.228451 289.023944,213.686009 288.992019,220.388638 C288.969671,227.089671 283.512113,232.510516 276.801502,232.480188 C270.108451,232.451455 264.689202,226.998685 264.709953,220.292864 C264.741878,213.588638 270.19784,208.174178 276.902066,208.201315" id="Shape"></path>
            <path d="M318.484225,230.875962 C325.411925,235.589671 327.214085,245.026667 322.490798,251.957559 C317.783474,258.888451 308.343286,260.685822 301.418779,255.972113 C294.49108,251.258404 292.692113,241.823005 297.401033,234.88892 C302.116338,227.961221 311.55493,226.162254 318.484225,230.875962" id="Shape"></path>
            <path d="M345.727324,283.443474 C349.617371,293.16939 344.882911,304.204225 335.149014,308.09108 C325.426291,311.976338 314.388263,307.248263 310.503005,297.517559 C306.612958,287.785258 311.347418,276.752019 321.078122,272.861972 C330.805634,268.97831 341.846854,273.714366 345.727324,283.443474" id="Shape"></path>
            <path d="M337.222535,356.953709 C334.451455,369.753991 321.825164,377.885258 309.026479,375.112582 C296.230986,372.335117 288.101315,359.716808 290.875587,346.922911 C293.649859,334.124225 306.269765,325.99615 319.068451,328.762441 C331.86554,331.536714 339.992019,344.158216 337.222535,356.953709" id="Shape"></path>
            <path d="M277.01061,427.193239 C265.198404,438.521784 246.432958,438.122723 235.110798,426.297746 C223.785446,414.488732 224.181315,395.724883 235.999906,384.402723 C247.82169,373.06939 266.583944,373.470047 277.910892,385.287042 C289.229859,397.105634 288.826009,415.87108 277.01061,427.193239" id="Shape"></path>
            <path d="M165.52892,457.895399 C145.366761,461.375211 126.199061,447.84385 122.728826,427.680094 C119.252207,407.519531 132.772394,388.355023 152.942535,384.88 C173.103099,381.40338 192.267606,394.925164 195.747418,415.100094 C199.216056,435.257465 185.695869,454.425164 165.52892,457.895399" id="Shape"></path>
            <path d="M28.5344601,411.786291 C5.20694836,401.292582 -5.19577465,373.881878 5.29633803,350.557559 C15.7916432,327.236432 43.2055399,316.82892 66.5314554,327.324225 C89.8573709,337.814742 100.256901,365.228638 89.7679812,388.55615 C79.2694836,411.875681 51.8571831,422.28 28.5344601,411.786291" id="Shape"></path>
            <path d="M174.332207,267.915211 C171.000845,262.096901 173.020094,254.679155 178.838404,251.350986 C184.656714,248.021221 192.077653,250.035681 195.404225,255.858779 C198.730798,261.678685 196.716338,269.091643 190.899624,272.423005 C185.078122,275.751174 177.663568,273.733521 174.332207,267.915211" id="Shape"></path>
            <path d="M173.170141,220.569014 C173.787887,212.209484 181.068357,205.934648 189.432676,206.549202 C197.782629,207.168545 204.062254,214.43784 203.444507,222.798967 C202.826761,231.158498 195.55108,237.431737 187.193146,236.815587 C178.833615,236.199437 172.558779,228.925352 173.170141,220.569014" id="Shape"></path>
            <path d="M205.077465,170.691174 C211.55662,162.457746 223.483756,161.041878 231.715587,167.522629 C239.949014,174.000188 241.366479,185.932113 234.887324,194.160751 C228.395399,202.392582 216.47784,203.808451 208.242817,197.3277 C200.017371,190.843756 198.595117,178.919812 205.077465,170.691174" id="Shape"></path>
            <path d="M272.997653,141.301127 C285.467512,137.29615 298.818498,144.166385 302.817089,156.636244 C306.812488,169.110892 299.951831,182.461878 287.477183,186.458873 C275.015305,190.452676 261.662723,183.58723 257.660939,171.117371 C253.657559,158.649108 260.530986,145.298122 272.997653,141.301127" id="Shape"></path>
            <path d="M363.922911,158.320282 C379.647512,162.893521 388.682254,179.342817 384.101033,195.059437 C379.535775,210.771268 363.088075,219.810798 347.368263,215.237559 C331.658028,210.664319 322.616901,194.219812 327.190141,178.5 C331.764977,162.78338 348.214272,153.748638 363.922911,158.320282" id="Shape"></path>
            <path d="M446.265164,239.514836 C459.357559,255.242629 457.218592,278.603662 441.495587,291.692864 C425.770986,304.785258 402.413146,302.657465 389.319155,286.928075 C376.223568,271.20507 378.362535,247.845634 394.088732,234.746854 C409.813333,221.660845 433.169577,223.795023 446.265164,239.514836" id="Shape"></path>
            <path d="M474.826761,381.215023 C477.404695,406.655962 458.864319,429.38169 433.418592,431.954836 C407.969671,434.526385 385.248732,415.993991 382.680376,390.54507 C380.10723,365.091362 398.647606,342.376808 424.096526,339.803662 C449.534272,337.233709 472.248826,355.766103 474.826761,381.215023" id="Shape"></path>
            <path d="M277.333052,326.886854 C273.96338,332.679624 266.524883,334.644601 260.72892,331.266948 C254.942535,327.894085 252.979155,320.458779 256.350423,314.672394 C259.729671,308.878028 267.158592,306.909859 272.948169,310.289108 C278.747324,313.660376 280.701127,321.092488 277.333052,326.886854" id="Shape"></path>
            <path d="M236.900188,351.556808 C229.356338,355.207418 220.28169,352.040469 216.64385,344.495023 C212.990047,336.946385 216.153803,327.876526 223.704038,324.233897 C231.249484,320.59446 240.324131,323.751831 243.968357,331.298873 C247.607793,338.841127 244.450423,347.915775 236.900188,351.556808" id="Shape"></path>
            <path d="M177.754554,348.87831 C167.390141,347.37784 160.200657,337.755681 161.696338,327.389671 C163.198404,317.020469 172.80939,309.824601 183.176995,311.328263 C193.54939,312.827136 200.740469,322.4477 199.241596,332.807324 C197.744319,343.181315 188.123756,350.375587 177.754554,348.87831" id="Shape"></path>
            <path d="M118.343944,304.745352 C108.649953,295.946854 107.915681,280.951737 116.715775,271.252958 C125.515869,261.558967 140.514178,260.826291 150.212958,269.627981 C159.910141,278.426479 160.636432,293.421596 151.834742,303.123568 C143.034648,312.819155 128.041127,313.545446 118.343944,304.745352" id="Shape"></path>
            <path d="M87.6178404,217.488263 C83.7198122,201.588075 93.4457277,185.542629 109.345915,181.643005 C125.241315,177.748169 141.296338,187.469296 145.191174,203.366291 C149.090798,219.264883 139.363286,235.311925 123.464695,239.213146 C107.5677,243.11277 91.5158685,233.383662 87.6178404,217.488263" id="Shape"></path>
            <path d="M116.771643,105.585164 C123.839812,86.3839437 145.143286,76.5558685 164.342911,83.6240376 C183.540939,90.7001878 193.375399,111.994085 186.302441,131.195305 C179.23108,150.398122 157.933991,160.22939 138.731174,153.156432 C119.531549,146.083474 109.698685,124.786385 116.771643,105.585164" id="Shape"></path>
            <path d="M225.206103,10.0004695 C245.952488,-4.95474178 274.898779,-0.255399061 289.844413,20.4893897 C304.799624,41.2421596 300.106667,70.1900469 279.350704,85.1404695 C258.607512,100.095681 229.664413,95.3979343 214.701221,74.6435681 C199.760376,53.8971831 204.451737,24.9540845 225.206103,10.0004695" id="Shape"></path>
        </g>
        <g id="Group" transform="translate(0.000000, 472.488263)" fill-rule="nonzero" fill="#BE1E2D">
            <path d="M567.554178,16.2098592 C567.554178,24.0921127 561.153239,30.4882629 553.275775,30.4882629 C545.391925,30.4882629 538.997371,24.0921127 538.997371,16.2098592 C538.997371,8.32760563 545.391925,1.9314554 553.275775,1.9314554 C561.153239,1.9314554 567.554178,8.32920188 567.554178,16.2098592" id="Shape"></path>
            <path d="M52.634554,138.769484 C41.6555869,138.769484 32.3255399,135.1077 25.1903286,127.790516 L25.1903286,178.650047 L0.855586854,178.650047 L0.855586854,89.3705164 C0.855586854,62.2886385 20.799061,40.1551174 49.3415023,40.1551174 C77.7003756,40.1551174 97.6422535,62.2886385 97.6422535,89.3705164 C97.6422535,116.629577 77.5168075,138.769484 52.634554,138.769484" id="Shape"></path>
            <path d="M152.027887,153.954554 C142.881408,178.466479 128.425822,181.761127 108.665915,180.480939 L108.665915,158.524601 C120.741502,159.260469 126.412958,156.332958 130.438685,145.535962 L133.181033,138.397559 L96.775493,42.5271362 L122.388826,42.5271362 L145.44338,110.587793 L167.94723,42.5271362 L193.744131,42.5271362 L152.027887,153.954554 Z" id="Shape"></path>
            <path d="M247.397089,63.3884507 C232.028451,60.644507 221.78216,68.876338 221.78216,82.2337089 L221.78216,136.755023 L197.632582,136.755023 L197.632582,82.2337089 C197.632582,55.5221596 216.110704,36.8588732 247.397089,40.7026291 L247.397089,63.3884507 Z" id="Shape"></path>
            <path d="M354.423662,136.755023 L331.554272,136.755023 L331.554272,126.877465 C324.417465,134.74216 314.17277,138.767887 302.826667,138.767887 C277.946009,138.767887 257.633803,116.811549 257.633803,89.7344601 C257.633803,62.4674178 277.578873,40.1535211 306.119718,40.1535211 C334.484977,40.1535211 354.423662,62.4674178 354.423662,89.7344601 L354.423662,136.755023 Z" id="Shape"></path>
            <path d="M519.261408,136.755023 L495.108638,136.755023 L495.108638,81.6830047 C495.108638,76.375493 493.280939,63.7539906 477.361596,63.7539906 C466.752958,63.7539906 459.067042,71.0743662 459.067042,81.6830047 L459.067042,136.755023 L434.915869,136.755023 L434.915869,81.6830047 C434.915869,76.375493 433.270141,63.7539906 417.353991,63.7539906 C406.558592,63.7539906 399.056244,71.0743662 399.056244,81.6830047 L399.056244,136.755023 L374.903474,136.755023 L374.903474,82.2337089 C374.903474,58.2629108 391.557089,40.1567136 417.353991,40.1567136 C430.159061,40.1567136 440.587324,45.2774648 447.360188,53.5076995 C454.493803,45.2774648 465.10723,40.1567136 477.361596,40.1567136 C503.709202,40.1567136 519.261408,57.5350235 519.261408,82.2337089 L519.261408,136.755023 L519.261408,136.755023 Z" id="Shape"></path>
            <rect id="Rectangle-path" x="541.20338" y="42.5303286" width="24.1479812" height="94.2246948"></rect>
            <path d="M679.144413,89.7360563 C679.144413,116.995117 659.205728,138.954648 630.843662,138.954648 C602.301221,138.954648 582.357746,116.995117 582.357746,89.7360563 C582.357746,62.6541784 602.669953,40.5206573 627.371831,40.5206573 C638.524789,40.5206573 647.679249,43.9956808 654.996432,51.4980282 L654.996432,0.630516432 L679.144413,0.630516432 L679.144413,89.7360563 L679.144413,89.7360563 Z" id="Shape"></path>
        </g>
        <g id="Group-2" transform="translate(23.943662, 534.741784)" fill="#FFFFFF">
            <path d="M606.9,0.582629108 C593.541033,0.582629108 582.748826,12.1123005 582.748826,27.664507 C582.748826,42.6644131 593.541033,54.1940845 606.9,54.1940845 C620.252582,54.1940845 631.05277,42.3004695 631.05277,27.664507 C631.05277,12.6630047 620.252582,0.582629108 606.9,0.582629108 L606.9,0.582629108 Z" id="Path"></path>
            <path d="M282.176056,0.582629108 C268.820282,0.582629108 258.026479,12.1123005 258.026479,27.664507 C258.026479,42.6644131 268.820282,54.1940845 282.176056,54.1940845 C295.531831,54.1940845 306.330423,42.3004695 306.330423,27.664507 C306.330423,12.6630047 295.533427,0.582629108 282.176056,0.582629108 L282.176056,0.582629108 Z" id="Path"></path>
            <path d="M25.3978404,0.582629108 C12.0420657,0.582629108 1.24666667,12.4794366 1.24666667,27.1169953 C1.24666667,42.1184977 12.0420657,54.1940845 25.3978404,54.1940845 C38.753615,54.1940845 49.5490141,42.4856338 49.5490141,27.1169953 C49.5490141,11.9271362 38.753615,0.582629108 25.3978404,0.582629108" id="Path"></path>
        </g>
    </g>
</svg>

<?xml version="1.0" encoding="UTF-8" standalone="no"?>
<svg
   xmlns:dc="http://purl.org/dc/elements/1.1/"
   xmlns:cc="http://creativecommons.org/ns#"
   xmlns:rdf="http://www.w3.org/1999/02/22-rdf-syntax-ns#"
   xmlns:svg="http://www.w3.org/2000/svg"
   xmlns="http://www.w3.org/2000/svg"
   xmlns:sodipodi="http://sodipodi.sourceforge.net/DTD/sodipodi-0.dtd"
   xmlns:inkscape="http://www.inkscape.org/namespaces/inkscape"
   width="473.85733"
   height="457.18503"
   viewBox="0 0 473.85733 457.18503"
   version="1.1"
   id="svg72"
   sodipodi:docname="Pyramid.svg"
   inkscape:version="0.92+devel unknown">
  <metadata
     id="metadata76">
    <rdf:RDF>
      <cc:Work
         rdf:about="">
        <dc:format>image/svg+xml</dc:format>
        <dc:type
           rdf:resource="http://purl.org/dc/dcmitype/StillImage" />
        <dc:title></dc:title>
      </cc:Work>
    </rdf:RDF>
  </metadata>
  <sodipodi:namedview
     pagecolor="#ffffff"
     bordercolor="#666666"
     inkscape:document-rotation="0"
     borderopacity="1"
     objecttolerance="10"
     gridtolerance="10"
     guidetolerance="10"
     inkscape:pageopacity="0"
     inkscape:pageshadow="2"
     inkscape:window-width="1920"
     inkscape:window-height="983"
     id="namedview74"
     showgrid="false"
     fit-margin-top="0"
     fit-margin-left="0"
     fit-margin-right="0"
     fit-margin-bottom="0"
     inkscape:zoom="1.1860891"
     inkscape:cx="24.708446"
     inkscape:cy="171.7606"
     inkscape:window-x="0"
     inkscape:window-y="27"
     inkscape:window-maximized="1"
     inkscape:current-layer="g63" />
  <!-- Generator: Sketch 42 (36781) - http://www.bohemiancoding.com/sketch -->
  <desc
     id="desc2">Created with Sketch.</desc>
  <defs
     id="defs4" />
  <g
     id="pyramid_logo_red_on_transparent_background"
     stroke="none"
     stroke-width="1"
     fill="none"
     fill-rule="evenodd"
     transform="translate(-112.94588,-1.2559175)">
    <g
       id="Group"
       transform="translate(111.73709)"
       fill-rule="nonzero"
       fill="#BE1E2D">
      <path
         d="m 276.90207,208.20131 c 6.69943,0.0271 12.12187,5.4847 12.08995,12.18733 -0.0224,6.70103 -5.47991,12.12188 -12.19052,12.09155 -6.69305,-0.0287 -12.1123,-5.48151 -12.09155,-12.18733 0.0319,-6.70422 5.48789,-12.11868 12.19212,-12.09155"
         id="Shape"
         inkscape:connector-curvature="0" />
      <path
         d="m 318.48422,230.87596 c 6.9277,4.71371 8.72986,14.15071 4.00658,21.0816 -4.70733,6.93089 -14.14751,8.72826 -21.07202,4.01455 -6.9277,-4.71371 -8.72667,-14.14911 -4.01775,-21.08319 4.71531,-6.9277 14.1539,-8.72667 21.08319,-4.01296"
         id="path7"
         inkscape:connector-curvature="0" />
      <path
         d="m 345.72732,283.44347 c 3.89005,9.72592 -0.84441,20.76075 -10.57831,24.64761 -9.72272,3.88526 -20.76075,-0.84282 -24.64601,-10.57352 -3.89004,-9.7323 0.84442,-20.76554 10.57512,-24.65559 9.72751,-3.88366 20.76873,0.8524 24.6492,10.5815"
         id="path9"
         inkscape:connector-curvature="0" />
      <path
         d="m 337.22253,356.95371 c -2.77108,12.80028 -15.39737,20.93155 -28.19605,18.15887 -12.79549,-2.77746 -20.92517,-15.39577 -18.15089,-28.18967 2.77427,-12.79868 15.39417,-20.92676 28.19286,-18.16047 12.79709,2.77427 20.92357,15.39578 18.15408,28.19127"
         id="path11"
         inkscape:connector-curvature="0" />
      <path
         d="m 277.01061,427.19324 c -11.81221,11.32854 -30.57765,10.92948 -41.89981,-0.89549 -11.32535,-11.80902 -10.92949,-30.57287 0.88911,-41.89503 11.82178,-11.33333 30.58403,-10.93267 41.91098,0.88432 11.31897,11.81859 10.91512,30.58404 -0.90028,41.9062"
         id="path13"
         inkscape:connector-curvature="0" />
      <path
         d="m 165.52892,457.8954 c -20.16216,3.47981 -39.32986,-10.05155 -42.80009,-30.21531 -3.47662,-20.16056 10.04356,-39.32507 30.2137,-42.80009 20.16057,-3.47662 39.32508,10.04516 42.80489,30.22009 3.46864,20.15738 -10.05155,39.32507 -30.2185,42.79531"
         id="path15"
         inkscape:connector-curvature="0" />
      <path
         d="M 28.53446,411.78629 C 5.2069484,401.29258 -5.1957746,373.88188 5.296338,350.55756 15.791643,327.23643 43.20554,316.82892 66.531455,327.32423 89.857371,337.81474 100.2569,365.22864 89.767981,388.55615 79.269484,411.87568 51.857183,422.28 28.53446,411.78629"
         id="path17"
         inkscape:connector-curvature="0" />
      <path
         d="m 174.33221,267.91521 c -3.33137,-5.81831 -1.31212,-13.23606 4.50619,-16.56422 5.81831,-3.32977 13.23925,-1.31531 16.56582,4.50779 3.32658,5.8199 1.31212,13.23286 -4.5046,16.56422 -5.8215,3.32817 -13.23605,1.31052 -16.56741,-4.50779"
         id="path19"
         inkscape:connector-curvature="0" />
      <path
         d="m 173.17014,220.56901 c 0.61775,-8.35953 7.89822,-14.63436 16.26254,-14.01981 8.34995,0.61934 14.62957,7.88864 14.01183,16.24977 -0.61775,8.35953 -7.89343,14.63277 -16.25136,14.01662 -8.35954,-0.61615 -14.63437,-7.89024 -14.02301,-16.24658"
         id="path21"
         inkscape:connector-curvature="0" />
      <path
         d="m 205.07746,170.69117 c 6.47916,-8.23342 18.4063,-9.64929 26.63813,-3.16854 8.23342,6.47756 9.65089,18.40948 3.17173,26.63812 -6.49192,8.23183 -18.40948,9.6477 -26.6445,3.16695 -8.22545,-6.48394 -9.6477,-18.40789 -3.16536,-26.63653"
         id="path23"
         inkscape:connector-curvature="0" />
      <path
         d="m 272.99765,141.30113 c 12.46986,-4.00498 25.82085,2.86525 29.81944,15.33511 3.9954,12.47465 -2.86526,25.82564 -15.33991,29.82263 -12.46188,3.99381 -25.81446,-2.87164 -29.81624,-15.3415 -4.00338,-12.46826 2.87005,-25.81925 15.33671,-29.81624"
         id="path25"
         inkscape:connector-curvature="0" />
      <path
         d="m 363.92291,158.32028 c 15.7246,4.57324 24.75934,21.02254 20.17812,36.73916 -4.56526,15.71183 -21.01296,24.75136 -36.73277,20.17812 -15.71023,-4.57324 -24.75136,-21.01775 -20.17812,-36.73756 4.57484,-15.71662 21.02413,-24.75136 36.73277,-20.17972"
         id="path27"
         inkscape:connector-curvature="0" />
      <path
         d="m 446.26516,239.51484 c 13.0924,15.72779 10.95343,39.08882 -4.76957,52.17802 -15.7246,13.0924 -39.08244,10.9646 -52.17643,-4.76479 -13.09559,-15.723 -10.95663,-39.08244 4.76957,-52.18122 15.7246,-13.08601 39.08085,-10.95183 52.17643,4.76799"
         id="path29"
         inkscape:connector-curvature="0" />
      <path
         d="m 474.82676,381.21502 c 2.57793,25.44094 -15.96244,48.16667 -41.40817,50.73982 -25.44892,2.57154 -48.16986,-15.96085 -50.73821,-41.40977 -2.57315,-25.45371 15.96723,-48.16826 41.41615,-50.74141 25.43774,-2.56995 48.1523,15.96244 50.73023,41.41136"
         id="path31"
         inkscape:connector-curvature="0" />
      <path
         d="m 277.33305,326.88685 c -3.36967,5.79277 -10.80817,7.75775 -16.60413,4.3801 -5.78639,-3.37286 -7.74977,-10.80817 -4.3785,-16.59456 3.37925,-5.79436 10.80817,-7.76253 16.59775,-4.38328 5.79915,3.37127 7.75296,10.80338 4.38488,16.59774"
         id="path33"
         inkscape:connector-curvature="0" />
      <path
         d="m 236.90019,351.55681 c -7.54385,3.65061 -16.6185,0.48366 -20.25634,-7.06179 -3.6538,-7.54863 -0.49005,-16.61849 7.06019,-20.26112 7.54544,-3.63944 16.62009,-0.48207 20.26432,7.06497 3.63943,7.54226 0.48206,16.6169 -7.06817,20.25794"
         id="path35"
         inkscape:connector-curvature="0" />
      <path
         d="m 177.75455,348.87831 c -10.36441,-1.50047 -17.55389,-11.12263 -16.05821,-21.48864 1.50206,-10.3692 11.11305,-17.56507 21.48065,-16.06141 10.3724,1.49888 17.56348,11.11944 16.06461,21.47906 -1.49728,10.37399 -11.11784,17.56827 -21.48705,16.07099"
         id="path37"
         inkscape:connector-curvature="0" />
      <path
         d="m 118.34394,304.74535 c -9.69399,-8.7985 -10.42826,-23.79361 -1.62817,-33.49239 8.8001,-9.69399 23.79841,-10.42667 33.49719,-1.62498 9.69718,8.7985 10.42347,23.79362 1.62178,33.49559 -8.80009,9.69559 -23.79361,10.42188 -33.4908,1.62178"
         id="path39"
         inkscape:connector-curvature="0" />
      <path
         d="m 87.61784,217.48826 c -3.898028,-15.90019 5.827888,-31.94563 21.72808,-35.84526 15.8954,-3.89483 31.95042,5.8263 35.84525,21.72329 3.89963,15.89859 -5.82788,31.94563 -21.72647,35.84686 -15.897,3.89962 -31.948832,-5.82949 -35.84686,-21.72489"
         id="path41"
         inkscape:connector-curvature="0" />
      <path
         d="m 116.77164,105.58516 c 7.06817,-19.201216 28.37165,-29.029291 47.57127,-21.961122 19.19803,7.07615 29.03249,28.370042 21.95953,47.571262 -7.07136,19.20282 -28.36845,29.03409 -47.57127,21.96113 -19.19962,-7.07296 -29.03249,-28.37005 -21.95953,-47.57127"
         id="path43"
         inkscape:connector-curvature="0" />
      <path
         d="M 225.2061,10.000469 C 245.95249,-4.9547418 274.89878,-0.25539906 289.84441,20.48939 304.79962,41.24216 300.10667,70.190047 279.3507,85.140469 258.60751,100.09568 229.66441,95.397934 214.70122,74.643568 199.76038,53.897183 204.45174,24.954084 225.2061,10.000469"
         id="path45"
         inkscape:connector-curvature="0" />
    </g>
    <g
       id="g63"
       transform="translate(0,472.48826)"
       fill-rule="nonzero"
       fill="#BE1E2D" />
  </g>
</svg>
